polaris-icons/icons/newicons/HeaderMajor.svg

<svg width="20" height="20" viewBox="0 0 20 20" fill="none" xmlns="http://www.w3.org/2000/svg">
<path fill-rule="evenodd" clip-rule="evenodd" d="M4.5 3C3.67157 3 3 3.67157 3 4.5V5.5C3 6.32843 3.67157 7 4.5 7H15.5C16.3284 7 17 6.32843 17 5.5V4.5C17 3.67157 16.3284 3 15.5 3H4.5ZM15.5 4.5H4.5L4.5 5.5H15.5V4.5Z" fill="black"/>
<path d="M3 10C3 9.0335 3.7835 8.25 4.75 8.25H5.75C6.16421 8.25 6.5 8.58579 6.5 9C6.5 9.41421 6.16421 9.75 5.75 9.75H4.75C4.61193 9.75 4.5 9.86193 4.5 10V11C4.5 11.4142 4.16421 11.75 3.75 11.75C3.33579 11.75 3 11.4142 3 11V10Z" fill="black"/>
<path d="M3 15.25C3 16.2165 3.7835 17 4.75 17H5.75C6.16421 17 6.5 16.6642 6.5 16.25C6.5 15.8358 6.16421 15.5 5.75 15.5H4.75C4.61193 15.5 4.5 15.3881 4.5 15.25V14.25C4.5 13.8358 4.16421 13.5 3.75 13.5C3.33579 13.5 3 13.8358 3 14.25V15.25Z" fill="black"/>
<path d="M15.25 8.25C16.2165 8.25 17 9.0335 17 10V11C17 11.4142 16.6642 11.75 16.25 11.75C15.8358 11.75 15.5 11.4142 15.5 11V10C15.5 9.86193 15.3881 9.75 15.25 9.75H14.25C13.8358 9.75 13.5 9.41421 13.5 9C13.5 8.58579 13.8358 8.25 14.25 8.25H15.25Z" fill="black"/>
<path d="M15.25 17C16.2165 17 17 16.2165 17 15.25V14.25C17 13.8358 16.6642 13.5 16.25 13.5C15.8358 13.5 15.5 13.8358 15.5 14.25V15.25C15.5 15.3881 15.3881 15.5 15.25 15.5H14.25C13.8358 15.5 13.5 15.8358 13.5 16.25C13.5 16.6642 13.8358 17 14.25 17H15.25Z" fill="black"/>
<path d="M11.75 9C11.75 9.41421 11.4142 9.75 11 9.75H9C8.58579 9.75 8.25 9.41421 8.25 9C8.25 8.58579 8.58579 8.25 9 8.25H11C11.4142 8.25 11.75 8.58579 11.75 9Z" fill="black"/>
<path d="M11 17C11.4142 17 11.75 16.6642 11.75 16.25C11.75 15.8358 11.4142 15.5 11 15.5H9C8.58579 15.5 8.25 15.8358 8.25 16.25C8.25 16.6642 8.58579 17 9 17H11Z" fill="black"/>
</svg>

<svg viewBox="0 0 20 20" fill="none" xmlns="http://www.w3.org/2000/svg"><path fill-rule="evenodd" clip-rule="evenodd" d="M4.5 3a1.5 1.5 0 0 0-1.5 1.5v1a1.5 1.5 0 0 0 1.5 1.5h11a1.5 1.5 0 0 0 1.5-1.5v-1a1.5 1.5 0 0 0-1.5-1.5h-11Zm11 1.5h-11v1h11v-1Z" fill="#000"/><path d="M3 10c0-.966.784-1.75 1.75-1.75h1a.75.75 0 0 1 0 1.5h-1a.25.25 0 0 0-.25.25v1a.75.75 0 0 1-1.5 0v-1Z" fill="#000"/><path d="M3 15.25c0 .966.784 1.75 1.75 1.75h1a.75.75 0 0 0 0-1.5h-1a.25.25 0 0 1-.25-.25v-1a.75.75 0 0 0-1.5 0v1Z" fill="#000"/><path d="M15.25 8.25c.966 0 1.75.784 1.75 1.75v1a.75.75 0 0 1-1.5 0v-1a.25.25 0 0 0-.25-.25h-1a.75.75 0 0 1 0-1.5h1Z" fill="#000"/><path d="M15.25 17a1.75 1.75 0 0 0 1.75-1.75v-1a.75.75 0 0 0-1.5 0v1a.25.25 0 0 1-.25.25h-1a.75.75 0 0 0 0 1.5h1Z" fill="#000"/><path d="M11.75 9a.75.75 0 0 1-.75.75h-2a.75.75 0 0 1 0-1.5h2a.75.75 0 0 1 .75.75Z" fill="#000"/><path d="M11 17a.75.75 0 0 0 0-1.5h-2a.75.75 0 0 0 0 1.5h2Z" fill="#000"/></svg>
